X:1
T:Title
%%score { ( 1 3 ) | ( 2 4 ) }
L:1/8
Q:1/4=100
M:4/4
K:F
V:1 treble nm="Grand Piano"
V:3 treble 
V:2 bass 
V:4 bass 
V:1
 A3 G BA F>G | A6 z2 | [EG]3 [FA] [EB][G,CE] [CEA]>[B,CG] | [A,CF]6 z2 | %4
w: Stella~McNutt * * * * *||||
 [CFA]3 [CF] [B,CE][B,EG] [B,DF]>[K:bass][F,B,D] | [A,C]6 z2 | [G,CE]3 [A,DF] [B,EG][DEB] [CFA]>G | %7
w: |||
 F6 z2 | c4 z4 | A4 c4 | z2 EA Bd[Ac]B | A6 z2 | c4 z4 | z FFd c4 | %14
w: |||||||
 [DFG]3 [D^FA] [DGB][G,CE] [C=FA]>[B,CG] | [A,CF]6 z2 |] %16
w: ||
V:2
 [F,CF]3 [F,B,F] [F,DF][F,CF] [F,B,D]>[F,D] | [F,C]6 z2 | [C,B,]3 [C,A,] [C,G,]C, C,>C, | F,6 z2 | %4
 F,3 A,, B,,B,, B,,>B,, | F,6 z2 | C,3 C, C,C, C,>[C,B,C] | [F,A,C]6 z2 | %8
 z [F,A,][G,B,][E,C] [C,C]2 z E | [F,CF][F,C][F,C][F,B,F] [F,A,F][G,B,] [A,C]2 | %10
 z2[K:treble] [B,C][A,CF] EB[K:bass] z G | [F,CF]2 [F,C]2 [F,C]2 z2 | %12
 z [F,A,][G,B,][E,C] [C,C]2 z E | [F,CF][F,C][F,C][F,B,F] [F,A,F]4 | B,,3 A,, G,,C, C,>C, | %15
 F,6 z2 |] %16
V:3
 x8 | x8 | x8 | x8 | x15/2[K:bass] x/ | x8 | x8 | x8 | z FE[Bd] [Ge][Ac][GB]G | z FFd z E F2 | %10
 G4 z4 | z2 F2 F2 z2 | z FE[Bd] [Ge][Ac][GB]G | A4 z4 | x8 | x8 |] %16
V:4
 x8 | x8 | x8 | x8 | x8 | x8 | x8 | x8 | z4 z2 [C,C]2 | x8 | z4[K:treble] [G,C]2[K:bass] [C,C]2 | %11
 x8 | z4 z2 [C,C]2 | x8 | x8 | x8 |] %16

